X:1
T:Title
%%score { 1 | ( 2 3 ) }
L:1/8
M:4/4
K:Ab
V:1 treble nm="Grand Piano"
V:2 bass 
V:3 bass 
V:1
 z4 z2 z[Q:1/4=100] [CE] | [CE] [CA]2 [EG] [DF] [DB]2 [FB] | [EA]2 [EA]>[EB] [Ec]3 [Ec] | %3
 [Gd] [Gd]2 B c c2 A | GABc B3 E | [Ec]2 [CA]>[DF] [DF] [CE]2 [CE] | c2 BA B3 [Ge] | %7
 e2 cA F[Fd][Fc][B,=EB] |[M:7/8] [CEA]2 [DEG]>[DEG] [CEA]3 |[M:1/8] e |[M:4/4] e2 c>c ccBc | %11
 d2 [GB]>[GB] [GB]3 [GB] | [Gd]2 [GB]>[GB] [GB][EGB][EA][EGB] | [EAc]2 [EAc]>[EAc] [EAc]3 [CE] | %14
 [CE] [CA]2 [EG] [DF] [DB]2 [FB] | AGAB c3 e | e2 cA F[Fd][Fc][B,=EB] | %17
[M:7/8] [CEA]2 [DEG]>[DEG] [CEA]3 |] %18
V:2
 z4 z2 z [A,,A,] | [A,,A,] [A,,E,]2 [C,A,] [D,A,] [D,F,]2 [D,D] | %2
 [E,C]2 [C,A,]>[B,,G,] [A,,A,]3 [A,,A,] | [E,B,] [E,B,]2 [E,G,E] [A,E] [A,E]2 [A,CE] | %4
 [E,E]2 z2 z4 | [A,,A,]2 [A,,A,]>[A,,A,] [A,,A,] [A,,A,]2 [A,,A,] | %6
 [A,E]2 [G,B,E][F,B,=D] [E,G,E]3 [E,_D] | [A,CA]2 [A,EA][K:bass][A,CE] [D,A,][B,,B,][C,=A,]D, | %8
[M:7/8] E,2 E,>E, A,,3 |[M:1/8][K:treble] [A,CA] | %10
[M:4/4] [A,CA]2 [A,EA]>[A,EA] [A,EA][A,EA][G,E][A,EA] | [B,EG]2[K:bass] [E,E]>[E,E] [E,E]3 [E,E] | %12
 [E,B,]2 [E,E]>[E,E] [E,E]D,C,B,, | A,,2 A,>A, A,3 [A,,A,] | %14
 [A,,A,] [A,,E,]2 [C,A,] [D,A,] [D,F,]2 [D,D] | %15
 [E,CE][E,B,E][E,CE][E,G,E][K:treble] [A,E]3 [A,CA] | %16
 [A,CA]2 [A,EA][A,CE][K:bass] [D,A,][B,,B,][C,=A,]D, |[M:7/8] E,2 E,>E, A,,3 |] %18
V:3
 x8 | x8 | x8 | x8 | B,C[E,G,E][E,A,E] [E,G,E]3 [E,G,] | x8 | x8 | x3[K:bass] x5 |[M:7/8] x7 | %9
[M:1/8][K:treble] x |[M:4/4] x8 | x2[K:bass] x6 | x8 | x8 | x8 | x4[K:treble] x4 | x4[K:bass] x4 | %17
[M:7/8] x7 |] %18

